X: 109
M: 2/4
L: 1/16
K: D
|:\
g2d2B2G2 | c4 TA4 |\
g2(Td2c2B2) | g2(d2Tc2B2) | g2(d2Tc2B2) | c4 {B}A4 |\
g2(d2c2B2) |
g2(d2Tc2B2) | c2(A2TG2F2) | G4 G4 |\
g2(d2Tc2B2) | g2(d2Tc2B2) | g2(d2Tc2B2) | c4 {B}A4 |\
g2(d2Tc2B2) | g2(d2Tc2B2) | c2(A2TG2F2) | G4 G4 |]


